X: 23
P: Longways for as many as will
M: C|
L: 1/8
K: G
[|\
f2a2 (ba) (gf) | e2g2 g2(fe) | f2a2 (ba)(gf) | e4 d4 |[|\
e2c2 cdec | d2B2 BcdB | g2G2 G2A2 | B4 d4 |]

